X: 35679
T: Sailor's Wife, The
R: jig
M: 6/8
K: Ddorian
A|:DEF E2 D|d2 e f2 g|agf edc|A/B/cA GEC|
DEF E2 D|d2 e f2 g|agf gec|1 d3 dcA:|2 d3 d2e||
|:fga fga|fga agf|ecg ecg|efg gfe|
f2 a agf|e2 g gfe|def edc|1 d3 d2e:|2 d3 dcA||

